assets/Health worker/Default/Flat/health_worker_flat_default.svg

<svg width="32" height="32" viewBox="0 0 32 32" fill="none" xmlns="http://www.w3.org/2000/svg">
<path d="M20.84 4.18C21.35 4.36 21.81 4.71 22.1 5.22C22.56 6.02 22.49 6.99 21.99 7.73C21.81 7.98 21.72 8.28 21.72 8.59V9.09C21.5668 9.81562 21.5 10.5 21.5 10.5C21.5 10.5 21.5429 11.8554 21.72 11.73V12.64C21.72 13.49 21.21 14.25 20.45 14.59C20.5362 14.4068 20.3204 13.9216 20.1109 13.4504C19.9316 13.0473 19.7569 12.6544 19.78 12.47L19.8403 11.5115C17.755 12.9842 14.4309 13.7229 12.218 12.1658L12.2399 12.48C12.2627 12.6668 12.0923 13.0551 11.9162 13.4565C11.7059 13.9359 11.4873 14.4341 11.5799 14.63C10.7699 14.3 10.2399 13.52 10.2399 12.65V11.74C10.3883 11.8427 11 10.5 11 10.5C11 10.5 10.4474 9.87846 10.24 9.07V8.57C10.24 8.26 10.14 7.96 9.96996 7.71C9.48996 7.01 9.40996 6.08 9.81996 5.29C10.11 4.75 10.58 4.36 11.12 4.18C11.69 3.98 12.18 3.6 12.5 3.09C12.91 2.43 13.64 2 14.47 2C14.8 2 15.1 2.07 15.39 2.19C15.77 2.35 16.2 2.35 16.58 2.19C16.86 2.07 17.17 2 17.49 2C18.33 2 19.07 2.45 19.49 3.12C19.79 3.63 20.28 3.99 20.84 4.18Z" fill="#F1A11E"/>
<path d="M16 16L10.0281 16.7607C9.67054 16.9923 9.32732 17.244 9 17.5143L8 24L9 30H15.5L16 29.5L16.5 30H23L24 24L23 17.5143C22.6716 17.2431 22.3272 16.9906 21.9684 16.7584L16 16Z" fill="#D3D3D3"/>
<path d="M15.5 30H16.5V24.3302L21.8344 16.6731C20.1433 15.6129 18.1432 15 16 15C14.1128 15 12.3367 15.4752 10.7847 16.3125L15.5 24.1998V30Z" fill="#FF6723"/>
<path d="M10.8712 19.4434L10.071 19.3003C9.94944 19.2799 9.86841 19.1674 9.87854 19.0448L10.021 16.7651C10.8361 16.2363 11.7257 15.8124 12.6706 15.5127L15.4797 22.1617L15.4849 22.1819C15.493 22.2134 15.5 22.2403 15.5 22.2741V25.9429C15.5 26.1166 15.2873 26.1983 15.1658 26.0757L10.2432 21.0069C10.152 20.9149 10.152 20.7719 10.233 20.6799L11.0028 19.8317C11.1244 19.6989 11.0535 19.474 10.8712 19.4434Z" fill="#E6E6E6"/>
<path d="M19.3294 15.5127L16.5203 22.1617L16.5151 22.182C16.507 22.2134 16.5 22.2403 16.5 22.2741V25.9429C16.5 26.1166 16.7127 26.1984 16.8342 26.0757L21.7568 21.0069C21.848 20.915 21.848 20.7719 21.767 20.6799L20.9972 19.8317C20.8756 19.6989 20.9465 19.4741 21.1288 19.4434L21.929 19.3003C22.0506 19.2799 22.1316 19.1675 22.1215 19.0448L21.979 16.7651C21.1639 16.2363 20.2743 15.8124 19.3294 15.5127Z" fill="#E6E6E6"/>
<path d="M23 17.5142V29.9998H27V25.9998C27 22.584 25.443 19.5317 23 17.5142Z" fill="#E6E6E6"/>
<path d="M9 29.9998V17.5142C6.55699 19.5317 5 22.584 5 25.9998V29.9998H9Z" fill="#E6E6E6"/>
<path d="M16 18.5C14.8952 18.5 14 17.5546 14 16.3879V15H18V16.3879C18 17.5546 17.1048 18.5 16 18.5Z" fill="#FCB100"/>
<path d="M15.8699 14.4905C14.0808 14.4905 12.6305 15.9408 12.6305 17.7299V19.7634C13.9162 19.9699 14.8905 21.0857 14.8905 22.4198V23.5798L14.5 23.9999L13.9093 23.5798L13.9093 22.4198C13.9093 21.4793 13.1475 20.7104 12.1999 20.7104C11.2594 20.7104 10.4905 21.4723 10.4905 22.4198V23.5699L10 23.9999L9.50928 23.5699V22.4198C9.50928 21.1176 10.4314 20.0394 11.6493 19.7858V17.7299C11.6493 15.3989 13.5389 13.5093 15.8699 13.5093C18.2008 13.5093 20.0905 15.3989 20.0905 17.7299V24.8499H19.1093V17.7299C19.1093 15.9408 17.6589 14.4905 15.8699 14.4905Z" fill="#635994"/>
<path d="M10.7308 26.7004H11.1599C11.4308 26.7004 11.6505 26.4808 11.6505 26.2098C11.6505 25.9389 11.4308 25.7192 11.1599 25.7192H10.7399L10.3539 26.2098L10.7399 26.6905L10.7308 26.7004Z" fill="#635994"/>
<path d="M13.6599 25.7192H13.3099C13.0389 25.7192 12.8193 25.9389 12.8193 26.2098C12.8193 26.4808 13.0389 26.7004 13.3099 26.7004H13.6599L13.9093 26.2098L13.6599 25.7192Z" fill="#635994"/>
<path d="M9.50928 26.0398V23.5698H10.4905V25.7092H10.7399V26.6904H10.1599C9.79893 26.6904 9.50928 26.4008 9.50928 26.0398Z" fill="#0084CE"/>
<path d="M14.8905 23.5798V26.0498C14.8905 26.4107 14.6009 26.7004 14.2399 26.7004H13.6599V25.7192H13.9093V23.5798H14.8905Z" fill="#0084CE"/>
<path d="M20.9299 25.3198C20.9299 26.0157 20.3658 26.5798 19.6699 26.5798C18.974 26.5798 18.4099 26.0157 18.4099 25.3198C18.4099 24.6239 18.974 24.0598 19.6699 24.0598C20.3658 24.0598 20.9299 24.6239 20.9299 25.3198Z" fill="#0084CE"/>
<path d="M19.6698 26.0299C20.062 26.0299 20.3798 25.712 20.3798 25.3199C20.3798 24.9277 20.062 24.6099 19.6698 24.6099C19.2777 24.6099 18.9598 24.9277 18.9598 25.3199C18.9598 25.712 19.2777 26.0299 19.6698 26.0299Z" fill="#1C5CD7"/>
<path d="M12.8099 10.4C12.8099 11.3002 12.0801 12.03 11.1799 12.03C10.2796 12.03 9.54987 11.3002 9.54987 10.4C9.54987 9.4998 10.2796 8.77002 11.1799 8.77002C12.0801 8.77002 12.8099 9.4998 12.8099 10.4Z" fill="#FDBB11"/>
<path d="M22.3998 10.4C22.3998 11.3002 21.6701 12.03 20.7698 12.03C19.8696 12.03 19.1398 11.3002 19.1398 10.4C19.1398 9.4998 19.8696 8.77002 20.7698 8.77002C21.6701 8.77002 22.3998 9.4998 22.3998 10.4Z" fill="#FDBB11"/>
<path d="M10.9241 8.79082L10.93 8.7899V7.9799C10.93 6.1399 12.42 4.6499 14.26 4.6499H15.53C15.8 4.6499 16.04 4.8099 16.14 5.0699C16.53 5.9399 17.4 6.4899 18.35 6.4899H19.75C20.51 6.5199 21.12 7.1399 21.13 7.9099L21.07 8.8099L21.0746 8.80994L20.7699 13.4699C20.5199 15.3899 18.8699 16.8299 16.9299 16.8299H15.0699C13.1299 16.8299 11.4899 15.3999 11.2299 13.4699L10.9241 8.79082Z" fill="#FFC83D"/>
<path d="M12.3919 7.89348C12.2724 7.98623 12.2507 8.15829 12.3435 8.27779C12.4362 8.39729 12.6081 8.41911 12.7276 8.32636L12.7297 8.32485C12.7328 8.32257 12.7383 8.31858 12.7462 8.31314C12.762 8.30226 12.787 8.28565 12.8207 8.26547C12.8882 8.22505 12.9895 8.17082 13.1192 8.11962C13.3787 8.01715 13.7473 7.92848 14.1869 7.98177C14.3371 7.99997 14.4736 7.89299 14.4918 7.74282C14.51 7.59264 14.403 7.45615 14.2528 7.43795C13.7024 7.37123 13.241 7.48256 12.918 7.6101C12.7565 7.67389 12.6284 7.74217 12.5393 7.79549C12.4947 7.82219 12.4597 7.84527 12.435 7.86235C12.4226 7.8709 12.4128 7.87796 12.4056 7.88324L12.3967 7.8898L12.3938 7.89201L12.3928 7.89284L12.3919 7.89348Z" fill="#D37034"/>
<path d="M19.6362 8.27779C19.729 8.15829 19.7071 7.98609 19.5876 7.89334L19.4404 7.79549C19.3513 7.74217 19.2232 7.67389 19.0617 7.6101C18.7387 7.48256 18.2773 7.37123 17.7269 7.43795C17.5767 7.45615 17.4697 7.59264 17.4879 7.74282C17.5061 7.89299 17.6426 7.99997 17.7928 7.98177C18.2324 7.92848 18.601 8.01715 18.8605 8.11962C18.9902 8.17082 19.0914 8.22505 19.159 8.26547L19.25 8.32485L19.2521 8.32638C19.3716 8.41896 19.5435 8.39723 19.6362 8.27779Z" fill="#D37034"/>
<path d="M12.2499 10.1C12.3999 9.49004 12.9499 9.04004 13.5999 9.04004C14.2799 9.04004 14.8399 9.53004 14.9699 10.17C14.9999 10.31 14.8799 10.44 14.7399 10.44H12.5099C12.3299 10.44 12.1999 10.27 12.2499 10.1Z" fill="white"/>
<path d="M19.7298 10.1C19.5798 9.49004 19.0298 9.04004 18.3798 9.04004C17.6998 9.04004 17.1298 9.53004 17.0098 10.17C16.9798 10.31 17.0998 10.44 17.2398 10.44H19.4598C19.6398 10.44 19.7698 10.27 19.7298 10.1Z" fill="white"/>
<path d="M12.9099 10.2001C12.9099 9.71006 13.3099 9.31006 13.7999 9.31006C14.2999 9.31006 14.6999 9.71006 14.6999 10.2001C14.6999 10.2818 14.6834 10.3471 14.6653 10.4183C14.6635 10.4255 14.6617 10.4327 14.6599 10.4401H12.9399C12.9199 10.3601 12.9099 10.2801 12.9099 10.2001Z" fill="#7D4533"/>
<path d="M19.0598 10.2001C19.0598 9.71006 18.6598 9.31006 18.1698 9.31006C17.6798 9.31006 17.2798 9.71006 17.2798 10.2001C17.2798 10.2901 17.2898 10.3601 17.3098 10.4401H19.0298C19.0498 10.3601 19.0598 10.2801 19.0598 10.2001Z" fill="#7D4533"/>
<path d="M13.7999 9.68994C14.0799 9.68994 14.3099 9.91994 14.3099 10.1999C14.3099 10.2899 14.2899 10.3699 14.2499 10.4399H13.3499C13.3099 10.3699 13.2899 10.2899 13.2899 10.1999C13.2899 9.91994 13.5199 9.68994 13.7999 9.68994Z" fill="black"/>
<path d="M18.1699 9.68994C17.8899 9.68994 17.6599 9.91994 17.6599 10.1999C17.6599 10.2899 17.6799 10.3699 17.7199 10.4399H18.6199C18.6599 10.3699 18.6799 10.2899 18.6799 10.1999C18.6799 9.91994 18.4499 9.68994 18.1699 9.68994Z" fill="black"/>
<path d="M13.6599 9.84994C13.6599 9.93831 13.5883 10.0099 13.4999 10.0099C13.4115 10.0099 13.3399 9.93831 13.3399 9.84994C13.3399 9.76158 13.4115 9.68994 13.4999 9.68994C13.5883 9.68994 13.6599 9.76158 13.6599 9.84994Z" fill="white"/>
<path d="M18.0598 9.84994C18.0598 9.93831 17.9882 10.0099 17.8998 10.0099C17.8114 10.0099 17.7398 9.93831 17.7398 9.84994C17.7398 9.76158 17.8114 9.68994 17.8998 9.68994C17.9882 9.68994 18.0598 9.76158 18.0598 9.84994Z" fill="white"/>
<path d="M15.6099 10.13L15.0999 11.8C14.9899 12.14 15.2499 12.49 15.6099 12.49H16.3799C16.7399 12.49 16.9999 12.14 16.8899 11.8L16.3699 10.13C16.2499 9.76004 15.7299 9.76004 15.6099 10.13Z" fill="#ED9200"/>
<path d="M15.9899 13.43C15.4599 13.43 14.9599 13.3 14.5399 13.08C14.3999 13.01 14.2499 13.17 14.3299 13.3C14.6799 13.84 15.2899 14.2 15.9799 14.2C16.6699 14.2 17.2799 13.84 17.6299 13.3C17.7199 13.16 17.5699 13 17.4199 13.08C17.0199 13.31 16.5199 13.43 15.9899 13.43Z" fill="#990839"/>
</svg>

<svg xmlns="http://www.w3.org/2000/svg" width="32" height="32" fill="none"><path fill="#F1A11E" d="M20.84 4.18c.51.18.97.53 1.26 1.04.46.8.39 1.77-.11 2.51-.18.25-.27.55-.27.86v.5c-.153.726-.22 1.41-.22 1.41s.043 1.355.22 1.23v.91c0 .85-.51 1.61-1.27 1.95.086-.183-.13-.668-.34-1.14-.178-.403-.353-.796-.33-.98l.06-.959c-2.085 1.473-5.41 2.212-7.622.655l.022.314c.023.187-.148.575-.324.976-.21.48-.429.978-.336 1.174a2.14 2.14 0 0 1-1.34-1.98v-.91c.148.103.76-1.24.76-1.24s-.553-.622-.76-1.43v-.5c0-.31-.1-.61-.27-.86a2.36 2.36 0 0 1-.15-2.42c.29-.54.76-.93 1.3-1.11.57-.2 1.06-.58 1.38-1.09A2.31 2.31 0 0 1 14.47 2c.33 0 .63.07.92.19.38.16.81.16 1.19 0 .28-.12.59-.19.91-.19.84 0 1.58.45 2 1.12.3.51.79.87 1.35 1.06Z"/><path fill="#D3D3D3" d="m16 16-5.972.76c-.357.232-.7.484-1.028.754L8 24l1 6h6.5l.5-.5.5.5H23l1-6-1-6.486a11.04 11.04 0 0 0-1.032-.756L16 16Z"/><path fill="#FF6723" d="M15.5 30h1v-5.67l5.334-7.657A10.948 10.948 0 0 0 16 15a10.95 10.95 0 0 0-5.215 1.313L15.5 24.2V30Z"/><path fill="#E6E6E6" d="m10.871 19.443-.8-.143a.236.236 0 0 1-.192-.255l.142-2.28a10.952 10.952 0 0 1 2.65-1.252l2.809 6.649.005.02c.008.031.015.058.015.092v3.669c0 .174-.213.255-.334.133l-4.923-5.07a.24.24 0 0 1-.01-.326l.77-.848c.121-.133.05-.358-.132-.389ZM19.33 15.513l-2.81 6.649-.005.02c-.008.031-.015.058-.015.092v3.669c0 .174.213.255.334.133l4.923-5.07a.24.24 0 0 0 .01-.326l-.77-.848c-.121-.133-.05-.358.132-.389l.8-.143a.236.236 0 0 0 .193-.255l-.143-2.28a10.952 10.952 0 0 0-2.65-1.252ZM23 17.514V30h4v-4c0-3.416-1.557-6.468-4-8.486ZM9 30V17.514C6.557 19.532 5 22.584 5 26v4h4Z"/><path fill="#FCB100" d="M16 18.5c-1.105 0-2-.945-2-2.112V15h4v1.388c0 1.167-.895 2.112-2 2.112Z"/><path fill="#635994" d="M15.87 14.49a3.24 3.24 0 0 0-3.24 3.24v2.033a2.692 2.692 0 0 1 2.26 2.657v1.16l-.39.42-.59-.42v-1.16a1.71 1.71 0 0 0-3.42 0v1.15L10 24l-.49-.43v-1.15a2.69 2.69 0 0 1 2.14-2.634V17.73a4.22 4.22 0 1 1 8.44 0v7.12h-.98v-7.12a3.24 3.24 0 0 0-3.24-3.24ZM10.73 26.7h.43a.49.49 0 0 0 0-.98h-.42l-.386.49.386.48-.01.01ZM13.66 25.72h-.35a.49.49 0 0 0 0 .98h.35l.25-.49-.25-.49Z"/><path fill="#0084CE" d="M9.51 26.04v-2.47h.98v2.14h.25v.98h-.58a.648.648 0 0 1-.65-.65ZM14.89 23.58v2.47c0 .36-.29.65-.65.65h-.58v-.98h.25v-2.14h.98ZM20.93 25.32a1.26 1.26 0 1 1-2.52 0 1.26 1.26 0 0 1 2.52 0Z"/><path fill="#1C5CD7" d="M19.67 26.03a.71.71 0 1 0 0-1.42.71.71 0 0 0 0 1.42Z"/><path fill="#FDBB11" d="M12.81 10.4a1.63 1.63 0 1 1-3.26 0 1.63 1.63 0 0 1 3.26 0ZM22.4 10.4a1.63 1.63 0 1 1-3.26 0 1.63 1.63 0 0 1 3.26 0Z"/><path fill="#FFC83D" d="M10.924 8.79h.006v-.81c0-1.84 1.49-3.33 3.33-3.33h1.27c.27 0 .51.16.61.42.39.87 1.26 1.42 2.21 1.42h1.4c.76.03 1.37.65 1.38 1.42l-.06.9h.005l-.305 4.66a3.872 3.872 0 0 1-3.84 3.36h-1.86c-1.94 0-3.58-1.43-3.84-3.36l-.306-4.68Z"/><path fill="#D37034" d="M12.392 7.893a.274.274 0 0 0 .336.433l.002-.001a2.052 2.052 0 0 1 .39-.205c.259-.103.627-.192 1.067-.138a.274.274 0 1 0 .066-.544 2.731 2.731 0 0 0-1.818.424 1.232 1.232 0 0 0-.03.021l-.008.007-.003.002h-.001l-.001.001ZM19.636 8.278a.274.274 0 0 0-.048-.385l-.148-.098a2.731 2.731 0 0 0-1.713-.358.274.274 0 1 0 .066.545 2.184 2.184 0 0 1 1.366.283l.091.06.002.001c.12.093.292.071.384-.048Z"/><path fill="#fff" d="M12.25 10.1c.15-.61.7-1.06 1.35-1.06.68 0 1.24.49 1.37 1.13.03.14-.09.27-.23.27h-2.23c-.18 0-.31-.17-.26-.34ZM19.73 10.1a1.393 1.393 0 0 0-2.72.07c-.03.14.09.27.23.27h2.22c.18 0 .31-.17.27-.34Z"/><path fill="#7D4533" d="M12.91 10.2c0-.49.4-.89.89-.89.5 0 .9.4.9.89a.837.837 0 0 1-.035.218l-.005.022h-1.72a.986.986 0 0 1-.03-.24ZM19.06 10.2c0-.49-.4-.89-.89-.89a.892.892 0 0 0-.86 1.13h1.72c.02-.08.03-.16.03-.24Z"/><path fill="#000" d="M13.8 9.69a.512.512 0 0 1 .45.75h-.9a.512.512 0 0 1 .45-.75ZM18.17 9.69a.512.512 0 0 0-.45.75h.9a.512.512 0 0 0-.45-.75Z"/><path fill="#fff" d="M13.66 9.85a.16.16 0 1 1-.32 0 .16.16 0 0 1 .32 0ZM18.06 9.85a.16.16 0 1 1-.32 0 .16.16 0 0 1 .32 0Z"/><path fill="#ED9200" d="m15.61 10.13-.51 1.67c-.11.34.15.69.51.69h.77c.36 0 .62-.35.51-.69l-.52-1.67a.399.399 0 0 0-.76 0Z"/><path fill="#990839" d="M15.99 13.43c-.53 0-1.03-.13-1.45-.35-.14-.07-.29.09-.21.22.35.54.96.9 1.65.9s1.3-.36 1.65-.9c.09-.14-.06-.3-.21-.22-.4.23-.9.35-1.43.35Z"/></svg>
